packages/vibrant-icons/assets/icons/ClearStyle/Thin.svg

<svg width="24" height="24" viewBox="0 0 24 24" fill="none" xmlns="http://www.w3.org/2000/svg">
<path fill-rule="evenodd" clip-rule="evenodd" d="M4.10198 2.8999L2.60101 1.39893L1.39893 2.60101L21.3989 22.601L22.601 21.3989L12.9536 11.7515V4.8004H19.2036V6.4009C19.2036 6.51136 19.2931 6.6009 19.4036 6.6009H20.9036C21.014 6.6009 21.1036 6.51136 21.1036 6.4009V3.0999C21.1036 3.03915 21.0009 2.98473 20.9316 2.94805C20.875 2.91803 20.8408 2.8999 20.9036 2.8999H4.10198ZM6.00248 4.8004L11.0494 9.8473V4.8004H6.00248Z" fill="#0C0C0C"/>
<path d="M11.0494 19.1999V14.6519L12.9536 16.5561V19.1999H14.4036C14.514 19.1999 14.6036 19.2894 14.6036 19.3999V20.9004C14.6036 21.0109 14.514 21.1004 14.4036 21.1004H9.59941C9.48896 21.1004 9.39942 21.0109 9.39942 20.9004V19.3999C9.39942 19.2894 9.48896 19.1999 9.59941 19.1999H11.0494Z" fill="#0C0C0C"/>
</svg>

<svg xmlns="http://www.w3.org/2000/svg" width="24" height="24" fill="none"><path fill="#0C0C0C" fill-rule="evenodd" d="M4.102 2.9 2.601 1.399 1.399 2.6l20 20 1.202-1.202-9.647-9.647V4.8h6.25v1.6c0 .111.09.2.2.2h1.5a.2.2 0 0 0 .2-.2V3.1c0-.06-.103-.115-.172-.152-.057-.03-.091-.048-.028-.048zm1.9 1.9 5.047 5.047V4.8z" clip-rule="evenodd"/><path fill="#0C0C0C" d="M11.05 19.2v-4.548l1.904 1.904V19.2h1.45c.11 0 .2.09.2.2v1.5a.2.2 0 0 1-.2.2H9.599a.2.2 0 0 1-.2-.2v-1.5c0-.11.09-.2.2-.2z"/></svg>
